X: 3
T: LONG LIVE THE PRINCE REGENT
O: 1814
%R: reel
B: A Musical Souvenir of the Royal Pavilion - Brighton"
F: https://www.mediafire.com/folder/d9iv45ggjx1fu/Royal_Pavilion_-_Brighton
Z: 2015 John Chambers <jc:trillian.mit.edu>
M: 2/4
L: 1/16
K: G
% - - - - - - - - - - - - - - - - - - - - - - - - - - - - -
|:\
d2(ce) (dB)G2 | A2FG AFD2 | EDEF GABc | (BAdc) (B2A2) |
d2(ce) (dB)G2 | A2FG AFD2 | G2g2E2e2 | DGFA G4 :|
|:\
(d^cdg) (dBG2) | (AGAB) AFD2 | EDFE GFAG | BAcB B2A2 |
(d^cdg) (dBG2) | AGAB AFD2 | GBdB FAcA | BGAF G4 :|
% - - - - - - - - - - Dance description - - - - - - - - - -
%%begintext align
%% Sett and change sides back again, lead down
%% the middle up again sett and turn your Partner
%% with both hands.
%%endtext
% %sep 2 2 400

%%sep 1 1 500
%%sep 1 1 500

